**kern
*part1
*staff1
*ICklav
*Ipiano
*I"
*>[A,A,B,B]
*>norep[A,B]
*>A
*clefG2
*k[b-]
*F:
*M3/4
*MM144
2f(>
4a
=
2cc
4a
=
2b-
4gg
=
8ffL
8ee)J
4ee
4r
=
4ff(
4a
4dd
=
4g
.4cc
8a)
=
.2f(
=
*^
.2g)	4f(
.	8e>Lm
.	8dJ
.	4e)
=	=
4a(	.2f[
4b-	.
4dd)	.
=	=
8dd(L	4f]
8cc	.
8b-	4rA
8a	.
8g	4rA
8fJ	.
*v	*v
=
4g
4b-)
4B- 4e
=
4A 4f
4r
.8ccc(L
16bb-Jk
=
4aa)
4aa
.8aa(L
16ggJk
=
4ff)
4ff
4ff(
=
4ee) 4gg)
4ee' 4gg'
4ee' 4gg'
=
4ee( 4gg(
4ff) 4aa)
16ccc(L
16ddd
16ccc
16bb-J
=
4aa)
4aa
16aa(L
16bb-
16aa
16ggJ
=
4ff)
4ff
4ff
=
4gg(
4bb-)
4b-( 4ee(
=
4a) 4ff)
4r
4ccc(
=
4ff)
4r
4cc(
=
4f)
4r
4c#(
=
.4d)
16f(>L
16aJ
8ddL
16aL
16ddJ
=
8ffL
16ddL
16ffJ
8aa')L
8aa(
8ff
8dd)J
=
32cc#(>LL>q
32eeq
32ggJq
.4bb-)
16aa(L
16ggJ
16ffL
16ee
16dd
16cc#J
=
.4bb-)
16aa(L
16ggJ
16ffL
16ee
16dd
16cc#)J
=
.4dd
16f(>L
16aJ
8ddL
16aL
16ddJ
=
8ffL
16ddL
16ffJ
8aa')L
8aa(
8ff
8dd)J
=
.4bn .4dd .4ff .4aa-
16gg(L
16ffJ
16ee-L
16dd
16cc
16bJ
=
.4aa-)
16gg(L
16ffJ
16ee-L
16dd
16cc
16bn)J
=
4cc([
16ccLL<]
16g
16cc
16gJ
16ee-L
16cc
16ee-
16ccJ
=
16ggL
16ee-
16gg
16ee-J
4ccc)
4r
=
4cc([
16ccL]
16a-
16cc
16a-J
16ee-L
16cc
16ee-
16ccJ
=
16aa-L
16ee-
16aa-
16ee-J
4ccc)
4r
=
4cc([
16ccL]
16f#
16cc
16f#J
16ee-L
16cc
16ee-
16ccJ
=
16ff#L
16ee-
16ff#
16ee-J
4ccc
4ff#)
=
32g(LL>q
32bnq
32dd)Jq
2gg(
16ffnL
16ee-
16dd
16ccJ
=
2gg
16ffL
16ee-
16dd
16ccJ
=
.4gg)
16aa-(L
16ggJ
16ffL
16ee-
16dd
16ccJ
=
4gg')
4g'
4r
=
32g(>qq
8een)
8r
8ee
8r
8ee
8r
=
32bn(</qq
.4gg()
8ff
4dd)
=
*^
8dd(L	4e
8cc)J	.
2ryy	.4g(\ .4cc(\
.	8bn) 8dd)
=	=
2dd(	2bn(
4ee)	4cc)
*v	*v
=
.4ff(
32gg(LL>q
32ffq
32eeJq
8ff)L
8gg
8aa)J
=
8aa(L
8gg
8ff#
8gg
8ffn
8ddJ
=
8dd#L
8ee
8ff
8ee
8gg
8ffJ
=
8eeL
8ddn
8cc
8bn
8a
8g)J
=
8dd#(L
8ee)
8dd#(
8ee)
8dd#(
8ee)J
=
8ff#(L
8gg)
8ff#(
8gg)
8ffn(
8ddn)J
=
*^
4ryy	8dd(L
.	8cc)J
8dd(L	4g
8cc)J	.
8ee(L	4bn
8dd)J	.
=	=
.4dd(	2bn(
8dd#	.
4ee)	4cc)
*v	*v
=
.4ff
32gg(/LL>q
32ff/q
32ee)/Jq
8ff(L
8gg
8aa)J
=
8aa(L
8gg
8ff#
8gg
8ffn
8ddJ
=
8dd#L
8ee
8gg
8ff
8ddn
8bn)J
=
8cc(L
8g)J
8r
8g
8r
8g
=
8fL 8gL
8fJ 8gJ
8r
8f 8g
8r
8f 8g
=
8e-L 8gL
8e-J 8gJ
8r
8e- 8g
8r
8e- 8g
=
8fL 8gL
8fJ 8gJ
8r
8f 8g
8r
8f 8g
=
8e-L 8gL
8e-J 8gJ
8r
8e- 8g
8r
8e- 8g
=
8e-L 8a-L
8e-J 8a-J
8r
8e- 8a-
8r
8e- 8a-
=
8dL 8a-L
8dJ 8a-J
8r
8d 8a-
8r
8d 8a-
=
8dL 8gL
8dJ 8gJ
8r
8d 8g
8r
8d 8g
=
8cL 8gL
8cJ 8gJ
8r
8c 8g
8cL 8fL
8cJ 8fJ
=
8r
8c 8f
8BnL 8fL
8BJ 8fJ
8r
8B 8f
=
8r
8c 8e-
8r
8c 8e-
8r
8c 8e-
=
8BnL 8dL
8e-( 8g(
8d 8f
8c 8e-
8B 8d
8c)J 8e-)J
=
8BnL 8dL
8e-( 8g(
8d 8f
8c 8e-
8B 8d
8cJ 8e-J
=
8BnL 8dL
8c 8e-
8B 8d
8c 8e-
8B 8d
8cJ 8e-J
=
8Bn)L 8d)L
8A#( 8c#(
8B 8d
8c# 8en
8d 8fn
8e)J 8g)J
=
4f 4a
4cn 4f 4a
4c 4f 4a
=
*^
2f( 2a(	.2c
4e) 4g)	.
=	=
16g(KL	4Bn 4d
.8f)J	.
4d 4f	4B
4d 4f	4B
*v	*v
=
2Bn( 2d( 2f(
4c) 4e)
=
8e(L 8g(L
8d)J 8f)J
4c( 4e(
4Bn) 4d)
=
8c 8e
8cc'L
8dd'
8ee'
8ff'
8gg'J
=
4aa
4aa
4aa
=
.4aa(
16bbnL
16aaJ
4gg)
=
*^
16gg(KL	4bn
.8ff)J	.
4ff	4b
4ff	4b
=	=
2ff(	2bn(
4ee)	4cc)
*v	*v
=
8ee(L 8gg(L
8dd)J 8ff)J
4cc 4ee
4bn 4dd
=
8eeL 8ggL
8eeJ 8ggJ
8r
8dd 8ff
8r
8cc 8ee
=
8r
8f 8dd
8r
8e 8cc
8r
8d 8bn
=
16r
16ee(L
16gg
16ee)J
16r
16dd(L
16ff
16dd)J
16r
16cc(L
16ee
16cc)J
=
16r
16f(L
16dd
16f)J
16r
16e(L
16cc
16e)J
16r
16d(L
16bn
16d)J
=
4e 4g 4cc
4r
.8ee(Lt
32ddL
32ccJ
=
2gg)
.8bbn(Lt
32aaL
32ggJ
=
2ccc)
.8ee(Lt
32ddL
32ccJ
=
4gg)
4gg
.8bbn(Lt
32aaL
32ggJ
=
4ccc)
.4eee
8gg#
=
4aa
.4ccc
8ee
=
.8ff(LT
32eeL
32ddJ
4ggn)
4dd 4ff 4gg 4bbn
=
4ee 4gg 4ccc
4c
4r
=:|!|:
*>B
*^
4g(	.2g
4cc	.
4ee)	.
=	=
2cc( 2ee(	.2g
4bn) 4dd)	.
=	=
4gg(	4r
4cc	2g
4ee)	.
=	=
2cc( 2ee(	.2g
4bn) 4dd)	.
*v	*v
=
4a(>
4dd
4ff
=
4ee
4dd)
4aa([
=
4aa]
4gg
4bn)
=
8cc(L
8g
8e
8g
8f
8d)J
=
.8c(L
16GJk
4c
4e)
=
2c((> 2e((>
4Bn) 4d)
=
*^
4g(	4r
4c	2G
4e)	.
*v	*v
=
2c((> 2e((>
4Bn) 4d)
=
4A(
4d
4f
=
4e
4d)
4a([
=
4a]
4g
4Bn)
=
8c(L
8g)J
8r
8g
8r
8g
=
8fL 8gL
8fJ 8gJ
8r
8f 8g
8r
8f 8g
=
8e-L 8gL
8e-J 8gJ
8r
8e- 8g
8r
8e- 8g
=
8fL 8gL
8fJ 8gJ
8r
8f 8g
8r
8f 8g
=
8e-L 8gL
8e-J 8gJ
8r
8e- 8g
8r
8e- 8g
=
8cL 8e-L 8f#L
8cJ 8e-J 8f#J
8r
8c 8e- 8f#
8r
8c 8e- 8f#
=
8dL 8gL
8dJ 8gJ
8r
8d 8g
8r
8d 8g
=
8dL 8aL 8ccL
8dJ 8aJ 8ccJ
8r
8d 8a 8cc
8r
8d 8a 8cc
=
8dL 8gL 8b-XL
8dJ 8gJ 8b-J
8r
8d 8g 8b-
8r
8d 8g 8b-
=
8gL 8b-L 8cc#L
8gJ 8b-J 8cc#J
8r
8g 8b- 8cc#
8r
8g 8b- 8cc#
=
8aL 8ddL
8aJ 8ddJ
8r
8a 8dd
8r
8a 8dd
=
8aL 8eeL 8ggL
8aJ 8eeJ 8ggJ
8r
8a 8ee 8gg
8r
8a 8ee 8gg
=
8aL 8ddL 8ffL
8aJ 8ddJ 8ffJ
8r
8a 8dd 8ff
8r
8a 8dd 8ff
=
8ddL 8gg#L
8ddJ 8gg#J
8r
8dd 8gg#
8r
8dd 8gg#
=
8cc# 8aa
8ff(L 8aa(L
8ee 8ggn
8dd 8ff
8cc# 8ee
8ddJ 8ffJ
=
8cc#) 8ee)
8f(L 8a(L
8e 8g
8d 8f
8c# 8e
8dJ 8fJ
=
8c#L 8eL
8d 8f
8c# 8e
8d 8f
8c# 8e
8dJ 8fJ
=
4c#) 4e)
4r
4r
=
8cn(L 8e(L
8d 8f
8c 8e
8d 8f
8c 8e
8dJ 8fJ
=
4c) 4e)
4r
4r
=
*^
8e(L	.2c[
8f	.
8e	.
8f	.
8e	.
8fJ	.
=	=
4e)	4c]
4r	2ryy
4r	.
=	=
8bb-(L	.2ee[
8aa	.
8bb-	.
8aa	.
8bb-	.
8aaJ	.
=	=
4bb-)	4ee]
2ryy	4r
.	4r
*v	*v
=
2f(>
4a
=
2cc
4a
=
2b-
4gg
=
8ffL
8ee)J
4ee
4r
=
4ff(
4a
4dd
=
4g
.4cc
8a)
=
.2f[
=
*^
.2g	4f(]
.	8eLm
.	8dJ
.	4e)
=	=
4a(	.2f[
4b-	.
4dd)	.
=	=
8ddL	4f]
8cc(	.
8b-	4r
8a	.
8g	4r
8fJ	.
*v	*v
=
4g
4b-)
4B- 4e
=
4A 4f
4r
.8ccc(L
16bb-Jk
=
4aa)
4aa
.8aa(L
16ggJk
=
4ff)
4ff
4ff(
=
4ee) 4gg)
4ee' 4gg'
4ee' 4gg'
=
4ee( 4gg(
4ff) 4aa)
16ccc(L
16ddd
16ccc
16bb-J
=
4aa)
4aa
16aa(L
16bb-
16aa
16ggJ
=
4ff)
4ff
4ff
=
4gg(
4bb-)
4b-( 4ee(
=
4a) 4ff)
4r
4ccc(
=
4ff)
4r
4cc(
=
4f)
4r
4c#(
=
.4d)
16f(>L
16aJ
8ddL
16aL
16ddJ
=
8ffL
16ddL
16ffJ
8aa')L
8aa(
8ff
8dd)J
=
32cc#(>LL>q
32eeq
32ggJq
.4bb-)
16aa(L
16ggJ
16ffL
16ee
16dd
16cc#J
=
.4bb-)
16aa(L
16ggJ
16ffL
16ee
16dd
16cc#)J
=
.4dd
16f(>L
16aJ
8ddL
16aL
16ddJ
=
8ffL
16ddL
16ffJ
8aa')L
8aa(
8ff
8dd)J
=
.4bn .4dd .4ff .4aa-
16gg(L
16ffJ
16ee-L
16dd
16cc
16bJ
=
.4aa-)
16gg(L
16ffJ
16ee-L
16dd
16cc
16bn)J
=
.4cc
16e-(>L
16gJ
8ccL
16gL
16ccJ
=
8ee-L
16ccL
16ee-J
8gg')L
8gg(
8ee-
8cc)J
=
.4an .4cc .4ee- .4gg-
16ff(L
16ee-J
16dd-L
16cc
16b-
16aJ
=
.4gg-)
16ff(L
16ee-J
16dd-L
16cc
16b-
16a)J
=
4b-([
16b-L]
16f
16b-
16fJ
16dd-L
16b-
16dd-
16b-J
=
16ffL
16dd-
16ff
16dd-J
4bb-)
4r
=
4an(>[
16aL]
16f
16a
16fJ
16ccL
16a
16cc
16aJ
=
16ffL
16cc
16ff
16ccJ
4aa)
4r
=
4a-(>[
16a-L]
16f
16a-
16fJ
16ddnL
16a-
16dd
16a-J
=
16ffL
16dd
16ff
16ddJ
4aa-
4ff)
=
32cc(LL>q
32eenq
32gg)Jq
2ccc(
16bb-XL
16aa-
16gg
16ffJ
=
2ccc
16bb-L
16aa-
16gg
16ffJ
=
.4cc)
16dd-(L
16ccJ
16b-L
16a-
16g
16fJ
=
4cc')
4c'
4r
=
32c(>qq
8an')
8r
8a'
8r
8a'
8r
=
32e(>/qq
.4cc()
8b-)
4g
=
*^
8g(L	4A
8f)J	.
.4c((> .4f((>	2ryy
8e) 8g)	.
*v	*v
=
2e((> 2g((>
4f) 4a)
=
.4b-
32cc(LL>q
32b-q
32aJq
8b-()L
8cc
8dd)J
=
8dd(L
8cc
8bn
8cc
8b-
8gJ
=
8g#L
8a
8b-
8a
8cc
8b-J
=
8aL
8gn
8f
8e
8d
8c)J
=
8g#(L 8gg#(L
8a) 8aa)
8g#( 8gg#(
8a) 8aa)
8g#( 8gg#(
8a)J 8aa)J
=
8bn(L 8bbn(L
8cc) 8ccc)
8b( 8bb(
8cc) 8ccc)
8bb-(
8ggn)J
=
*^
4ryy	8gg(L
.	8ff)J
8gg(L	4cc
8ff)J	.
8aa(L	4ee
8gg)J	.
=	=
.4gg(	2ee(
8gg#	.
4aa)	4ff)
*v	*v
=
.4bb-
32ccc(LL>q
32bb-q
32aa)Jq
8bb-(L
8ccc
8ddd)J
=
8ddd(L
8ccc
8bbn
8ccc
8bb-
8ggJ
=
8gg#L
8aa
8ccc
8bb-
8ggn
8ee)J
=
8ff(L
8cc)J
8r
8cc
8r
8cc
=
8b-L 8ccL
8b-J 8ccJ
8r
8b- 8cc
8r
8b- 8cc
=
8a-L< 8ccL<
8a-J 8ccJ
8r
8a- 8cc
8r
8a- 8cc
=
8b-L 8ccL
8b-J 8ccJ
8r
8b- 8cc
8r
8b- 8cc
=
8a-L< 8ccL<
8a-J 8ccJ
8r
8a- 8cc
8r
8a- 8cc
=
8a-L 8dd-L
8a-J 8dd-J
8r
8a- 8dd-
8r
8a- 8dd-
=
8gL< 8dd-L<
8gJ 8dd-J
8r
8g 8dd-
8r
8g 8dd-
=
8gL 8ccL
8gJ 8ccJ
8r
8g 8cc
8r
8g 8cc
=
8fL 8ccL
8fJ 8ccJ
8r
8f 8cc
8fL 8b-L
8fJ 8b-J
=
8r
8f 8b-
8enL 8b-L
8eJ 8b-J
8r
8e 8b-
=
8r
8f 8a-
8r
8f 8a-
8r
8f 8a-
=
8eL 8gL
8a-( 8cc(
8g 8b-
8f 8a-
8e 8g
8fJ 8a-J
=
8e)L 8g)L
8a-( 8cc(
8g 8b-
8f 8a-
8e 8g
8f)J 8a-)J
=
8e(L 8g(L
8f 8a-
8e 8g
8f 8a-
8e 8g
8fJ 8a-J
=
8eL 8gL
8d# 8f#
8e 8g
8f#X 8an
8g 8b-
8a)J 8cc)J
=
*^
4b-/ 4dd/	4ryy
4b- 4dd	4fn
4b- 4dd	4f
=	=
2b-( 2dd(	.2f
4a) 4cc)	.
=	=
16cc(KL	4e 4g
.8b-)J	.
4g 4b-	4e
4g 4b-	4e
*v	*v
=
2e((> 2g((> 2b-((>
4f) 4a)
=
8a(L 8cc(L
8g)J 8b-)J
4f( 4a(
4e) 4g)
=
8f 8a
8ff'L
8gg'
8aa'
8bb-'
8ccc'J
=
4ddd
4ddd
4ddd
=
.4ddd(
16eeeL
16dddJ
4ccc)
=
*^
16ccc(KL	4ee
.8bb-)J	.
4bb-	4ee
4bb-	4ee
=	=
2bb-(	2ee(
4aa)	4ff)
*v	*v
=
8aa(L 8ccc(L
8gg)J 8bb-)J
4ff 4aa
4ee 4gg
=
8aaL 8cccL
8aaJ 8cccJ
8r
8gg 8bb-
8r
8ff 8aa
=
8r
8b- 8gg
8r
8a 8ff
8r
8g 8ee
=
16r
16aa(L
16ccc
16aa)J
16r
16gg(L
16bb-
16gg)J
16r
16ff(L
16aa
16ff)J
=
16r
16b-(L
16gg
16b-)J
16r
16a(L
16ff
16a)J
16r
16g(LL<
16ee
16g)J
=
4a 4cc 4ff
4r
.8a(>Lt
32gL
32fJ
=
2cc)
.8ee(Lt
32ddL
32ccJ
=
2ff)
.8aa(LT
32ggL
32ffJ
=
4ccc')
4ccc'
.8eee(Lt
32dddL
32cccJ
=
4fff)
.4aa
8cc#
=
4dd
.4ff
8a
=
.8b-(LT
32aL
32gJ
4ccn)
4g 4cc 4ee
=
4a 4cc 4ff
4f
4r
==:|!
*-
